X: 41657
T: Upon A Sunday Morning When Spring Was In Its Prime
R: jig
M: 6/8
K: Gmajor
d|G2G e2c|d2c A2F|D2G G2F|G3G2d|
d2B d2f|g2g f2d|e2e f2d|B3B2d|
d2B d2f|g2g f2d|e2e f2d|B3B2d|
G2G e2c|d2c A2F|D2G G2F|G3G2||

